images/htmlacademy.svg

<svg width="115" height="34" viewBox="0 0 115 34" fill="none" xmlns="http://www.w3.org/2000/svg">
<path d="M0 13.2564V15.8564H2.5V13.2564H0Z" fill="black"/>
<path d="M11.6 4.85645C10 4.85645 8.8 5.55645 8 6.55645H7.9V0.356445H5.9V15.8564H7.9V10.5564C7.9 8.45645 9.2 6.95645 11.2 6.95645C13 6.95645 14.1 8.35645 14.1 10.1564V15.8564H16.1V9.75644C16.2 6.75644 14.3 4.85645 11.6 4.85645Z" fill="black"/>
<path d="M26.6 5.15645H21.8V1.45645H19.8V5.25645H17.9V7.25645H19.8V13.2564C19.8 14.9564 20.8 15.9564 22.5 15.9564H26.6V13.9564H22.9C22.2 13.9564 21.8 13.5564 21.8 12.8564V7.15645H26.6V5.15645Z" fill="black"/>
<path d="M41.1 4.95645C39.5 4.95645 38.2 5.75644 37.6 7.05645H37.5C36.9 5.85645 35.7 4.95645 34.1 4.95645C32.7 4.95645 31.6 5.75645 31 6.75645H30.9V5.15645H29V15.7564H31V10.3564C31 8.35645 32 6.85645 33.6 6.85645C35.1 6.85645 36 7.85645 36 9.45645V15.7564H38V10.1564C38 7.75645 39.4 6.85645 40.6 6.85645C42.1 6.85645 43 7.85645 43 9.45645V15.7564H45V9.25644C45.1 6.75644 43.6 4.95645 41.1 4.95645Z" fill="black"/>
<path d="M47.8 13.0564C47.8 14.7564 48.8 15.7564 50.6 15.7564H52.6V13.7564H50.9C50.2 13.7564 49.8 13.3564 49.8 12.6564V0.356445H47.8V13.0564Z" fill="black"/>
<path d="M28.9 20.0564C28 18.9564 26.7 18.2564 25 18.2564C21.9 18.2564 19.6 20.5564 19.6 23.8564C19.6 27.1564 21.9 29.4564 25 29.4564C26.8 29.4564 28 28.6564 28.8 27.5564H28.9V29.1564H30.9V18.5564H28.9V20.0564ZM25.3 27.4564C23.1 27.4564 21.7 25.8564 21.7 23.8564C21.7 21.8564 23.1 20.2564 25.3 20.2564C27.5 20.2564 28.9 21.8564 28.9 23.8564C28.9 25.7564 27.5 27.4564 25.3 27.4564Z" fill="black"/>
<path d="M44.2 22.3564C43.7 19.9564 41.6 18.2564 38.8 18.2564C35.4 18.2564 33.2 20.7564 33.2 23.8564C33.2 26.9564 35.4 29.4564 38.8 29.4564C41.6 29.4564 43.7 27.6564 44.2 25.2564H42.1C41.7 26.5564 40.4 27.5564 38.8 27.5564C36.6 27.5564 35.2 25.9564 35.2 23.9564C35.2 21.9564 36.6 20.3564 38.8 20.3564C40.4 20.3564 41.6 21.3564 42.1 22.5564H44.2V22.3564Z" fill="black"/>
<path d="M55.1 20.0564C54.2 18.9564 52.9 18.2564 51.2 18.2564C48.1 18.2564 45.8 20.5564 45.8 23.8564C45.8 27.1564 48.1 29.4564 51.2 29.4564C53 29.4564 54.2 28.6564 55 27.5564H55.1V29.1564H57.1V18.5564H55.1V20.0564ZM51.5 27.4564C49.3 27.4564 47.9 25.8564 47.9 23.8564C47.9 21.8564 49.3 20.2564 51.5 20.2564C53.7 20.2564 55.1 21.8564 55.1 23.8564C55.1 25.7564 53.6 27.4564 51.5 27.4564Z" fill="black"/>
<path d="M68.7 20.1564C67.8 19.0564 66.5 18.2564 64.8 18.2564C61.7 18.2564 59.4 20.5564 59.4 23.8564C59.4 27.1564 61.6 29.4564 64.8 29.4564C66.5 29.4564 67.8 28.6564 68.6 27.6564H68.7V29.1564H70.7V13.7564H68.7V20.1564ZM65.1 27.4564C62.9 27.4564 61.5 25.8564 61.5 23.8564C61.5 21.8564 62.9 20.2564 65.1 20.2564C67.3 20.2564 68.7 21.8564 68.7 23.8564C68.6 25.8564 67.2 27.4564 65.1 27.4564Z" fill="black"/>
<path d="M78.3 18.2564C75 18.2564 72.8 20.7564 72.8 23.8564C72.8 26.8564 74.9 29.4564 78.3 29.4564C80.8 29.4564 82.8 28.1564 83.5 25.8564H81.4C80.9 26.8564 79.8 27.4564 78.4 27.4564C76.5 27.4564 75.1 26.1564 75 24.5564H83.8C84 20.9564 81.8 18.2564 78.3 18.2564ZM78.3 20.1564C80 20.1564 81.3 21.1564 81.6 22.7564H75.1C75.4 21.2564 76.6 20.1564 78.3 20.1564Z" fill="black"/>
<path d="M98.2 18.2564C96.6 18.2564 95.3 19.0564 94.6 20.2564H94.5C93.9 19.0564 92.7 18.2564 91.1 18.2564C89.7 18.2564 88.6 18.9564 88 20.0564V18.5564H86.1V29.1564H88.1V23.7564C88.1 21.7564 89.1 20.3564 90.7 20.2564C92.2 20.2564 93.1 21.2564 93.1 22.8564V29.1564H95.1V23.5564C95.1 21.1564 96.5 20.2564 97.7 20.2564C99.2 20.2564 100.1 21.2564 100.1 22.8564V29.1564H102.1V22.6564C102.2 20.0564 100.7 18.2564 98.2 18.2564Z" fill="black"/>
<path d="M109.4 27.3564L105.8 18.4564H103.6L108.4 30.0564C108.1 30.9564 107.7 31.2564 106.7 31.2564H104.2V33.2564H106.7C108.5 33.2564 109.5 32.4564 110.2 30.6564L114.9 18.4564H112.8L109.4 27.3564Z" fill="black"/>
</svg>

<svg xmlns="http://www.w3.org/2000/svg" width="115" height="34" fill="none"><path fill="#000" d="M0 13.256v2.6h2.5v-2.6H0ZM11.6 4.856c-1.6 0-2.8.7-3.6 1.7h-.1v-6.2h-2v15.5h2v-5.3c0-2.1 1.3-3.6 3.3-3.6 1.8 0 2.9 1.4 2.9 3.2v5.7h2v-6.1c.1-3-1.8-4.9-4.5-4.9ZM26.6 5.156h-4.8v-3.7h-2v3.8h-1.9v2h1.9v6c0 1.7 1 2.7 2.7 2.7h4.1v-2h-3.7c-.7 0-1.1-.4-1.1-1.1v-5.7h4.8v-2ZM41.1 4.956c-1.6 0-2.9.8-3.5 2.1h-.1c-.6-1.2-1.8-2.1-3.4-2.1-1.4 0-2.5.8-3.1 1.8h-.1v-1.6H29v10.6h2v-5.4c0-2 1-3.5 2.6-3.5 1.5 0 2.4 1 2.4 2.6v6.3h2v-5.6c0-2.4 1.4-3.3 2.6-3.3 1.5 0 2.4 1 2.4 2.6v6.3h2v-6.5c.1-2.5-1.4-4.3-3.9-4.3ZM47.8 13.056c0 1.7 1 2.7 2.8 2.7h2v-2h-1.7c-.7 0-1.1-.4-1.1-1.1V.356h-2v12.7ZM28.9 20.056c-.9-1.1-2.2-1.8-3.9-1.8-3.1 0-5.4 2.3-5.4 5.6s2.3 5.6 5.4 5.6c1.8 0 3-.8 3.8-1.9h.1v1.6h2v-10.6h-2v1.5Zm-3.6 7.4c-2.2 0-3.6-1.6-3.6-3.6s1.4-3.6 3.6-3.6 3.6 1.6 3.6 3.6c0 1.9-1.4 3.6-3.6 3.6ZM44.2 22.356c-.5-2.4-2.6-4.1-5.4-4.1-3.4 0-5.6 2.5-5.6 5.6 0 3.1 2.2 5.6 5.6 5.6 2.8 0 4.9-1.8 5.4-4.2h-2.1c-.4 1.3-1.7 2.3-3.3 2.3-2.2 0-3.6-1.6-3.6-3.6s1.4-3.6 3.6-3.6c1.6 0 2.8 1 3.3 2.2h2.1v-.2ZM55.1 20.056c-.9-1.1-2.2-1.8-3.9-1.8-3.1 0-5.4 2.3-5.4 5.6s2.3 5.6 5.4 5.6c1.8 0 3-.8 3.8-1.9h.1v1.6h2v-10.6h-2v1.5Zm-3.6 7.4c-2.2 0-3.6-1.6-3.6-3.6s1.4-3.6 3.6-3.6 3.6 1.6 3.6 3.6c0 1.9-1.5 3.6-3.6 3.6ZM68.7 20.156c-.9-1.1-2.2-1.9-3.9-1.9-3.1 0-5.4 2.3-5.4 5.6s2.2 5.6 5.4 5.6c1.7 0 3-.8 3.8-1.8h.1v1.5h2v-15.4h-2v6.4Zm-3.6 7.3c-2.2 0-3.6-1.6-3.6-3.6s1.4-3.6 3.6-3.6 3.6 1.6 3.6 3.6c-.1 2-1.5 3.6-3.6 3.6ZM78.3 18.256c-3.3 0-5.5 2.5-5.5 5.6 0 3 2.1 5.6 5.5 5.6 2.5 0 4.5-1.3 5.2-3.6h-2.1c-.5 1-1.6 1.6-3 1.6-1.9 0-3.3-1.3-3.4-2.9h8.8c.2-3.6-2-6.3-5.5-6.3Zm0 1.9c1.7 0 3 1 3.3 2.6h-6.5c.3-1.5 1.5-2.6 3.2-2.6ZM98.2 18.256c-1.6 0-2.9.8-3.6 2h-.1c-.6-1.2-1.8-2-3.4-2-1.4 0-2.5.7-3.1 1.8v-1.5h-1.9v10.6h2v-5.4c0-2 1-3.4 2.6-3.5 1.5 0 2.4 1 2.4 2.6v6.3h2v-5.6c0-2.4 1.4-3.3 2.6-3.3 1.5 0 2.4 1 2.4 2.6v6.3h2v-6.5c.1-2.6-1.4-4.4-3.9-4.4ZM109.4 27.356l-3.6-8.9h-2.2l4.8 11.6c-.3.9-.7 1.2-1.7 1.2h-2.5v2h2.5c1.8 0 2.8-.8 3.5-2.6l4.7-12.2h-2.1l-3.4 8.9Z"/></svg>
